svgs/solid/basket-shopping-simple.svg

<svg xmlns="http://www.w3.org/2000/svg" viewBox="0 0 576 512"><!--! Font Awesome Pro 6.1.2 by @fontawesome - https://fontawesome.com License - https://fontawesome.com/license (Commercial License) Copyright 2022 Fonticons, Inc. --><path d="M243.1 2.706C254.8 8.821 259.4 23.31 253.3 35.07L171.7 192H404.3L322.7 35.07C316.6 23.31 321.2 8.821 332.9 2.706C344.7-3.409 359.2 1.167 365.3 12.93L458.4 192H544C561.7 192 576 206.3 576 224C576 241.7 561.7 256 544 256L492.1 463.5C484.1 492 459.4 512 430 512H145.1C116.6 512 91 492 83.88 463.5L32 256C14.33 256 0 241.7 0 224C0 206.3 14.33 192 32 192H117.6L210.7 12.93C216.8 1.167 231.3-3.409 243.1 2.706L243.1 2.706zM144 296C157.3 296 168 285.3 168 272C168 258.7 157.3 248 144 248C130.7 248 120 258.7 120 272C120 285.3 130.7 296 144 296zM432 248C418.7 248 408 258.7 408 272C408 285.3 418.7 296 432 296C445.3 296 456 285.3 456 272C456 258.7 445.3 248 432 248z"/></svg>

<svg xmlns="http://www.w3.org/2000/svg" viewBox="0 0 576 512"><!--! Font Awesome Pro 6.2.0 by @fontawesome - https://fontawesome.com License - https://fontawesome.com/license (Commercial License) Copyright 2022 Fonticons, Inc. --><path d="M243.1 2.7c11.8 6.1 16.3 20.6 10.2 32.4L171.7 192H404.3L322.7 35.1c-6.1-11.8-1.5-26.3 10.2-32.4s26.2-1.5 32.4 10.2L458.4 192H544c17.7 0 32 14.3 32 32s-14.3 32-32 32L492.1 463.5C485 492 459.4 512 430 512H146c-29.4 0-55-20-62.1-48.5L32 256c-17.7 0-32-14.3-32-32s14.3-32 32-32h85.6L210.7 12.9c6.1-11.8 20.6-16.3 32.4-10.2zM144 296c13.3 0 24-10.7 24-24s-10.7-24-24-24s-24 10.7-24 24s10.7 24 24 24zm312-24c0-13.3-10.7-24-24-24s-24 10.7-24 24s10.7 24 24 24s24-10.7 24-24z"/></svg>
